dist/svg/positive-false.svg

<!-- Generated by Trend Micro Style Portal -->
<svg version="1.1" xmlns="http://www.w3.org/2000/svg" width="16" height="16" viewBox="0 0 16 16">
  <title>positive-false</title>
  <path fill="rgb(34,34,34)" d="M13.5 10c-1.381 0-2.5 1.119-2.5 2.5s1.119 2.5 2.5 2.5c1.381 0 2.5-1.119 2.5-2.5v0c0-0.007 0-0.016 0-0.024 0-1.367-1.108-2.476-2.476-2.476-0.009 0-0.017 0-0.026 0l0.001-0zM13.5 14.5c-1.105 0-2-0.895-2-2s0.895-2 2-2c1.105 0 2 0.895 2 2v0c-0.003 1.103-0.897 1.997-2 2h-0zM14 1l-8.1 9.8-3.9-3.8-2 2 6 6 10-12zM6 14l-5-5 1-1 3.4 3.3 0.5 0.5 0.5-0.6 7.6-9.2 1 1z"></path>
</svg>

<svg width="16" height="16" viewBox="0 0 16 16" fill="rgb(34, 34, 34)" xmlns="http://www.w3.org/2000/svg"><title>positive-false</title><path d="M13.5 10C12.119 10 11 11.119 11 12.5C11 13.881 12.119 15 13.5 15C14.881 15 16 13.881 16 12.5C16 12.493 16 12.484 16 12.476C16 11.109 14.892 10 13.524 10C13.515 10 13.507 10 13.498 10H13.5ZM13.5 14.5C12.395 14.5 11.5 13.605 11.5 12.5C11.5 11.395 12.395 10.5 13.5 10.5C14.605 10.5 15.5 11.395 15.5 12.5C15.497 13.603 14.603 14.497 13.5 14.5ZM14 1L5.9 10.8L2 7L0 9L6 15L16 3L14 1ZM6 14L1 9L2 8L5.4 11.3L5.9 11.8L6.4 11.2L14 2L15 3L6 14Z" fill="rgb(34, 34, 34)" fill-opacity="1.00"/></svg>
